X:148
T:'Twas on a Summer Morning
N:"Tenderly" "collected by J. O'Neill"
B:O'Neill's 148
Z:Transcribed by henrik.norbeck@mailbox.swipnet.se
M:2/4
L:1/8
K:F
c/d/4e/4|fe dc|c2 A3F/A/c/|d2 GA|F2 z||
A/B/|cd/e/ fg|fe z e/f/|gc/d/ ed|c2 z c/d/4e/4|
fe e2dc|c2 A3F/A/c/|d2 GA|F3||
